images/m13c-logo.svg

<?xml version="1.0" standalone="no"?><!DOCTYPE svg PUBLIC "-//W3C//DTD SVG 1.1//EN" "http://www.w3.org/Graphics/SVG/1.1/DTD/svg11.dtd"><svg t="1710383929535" class="icon" viewBox="0 0 1024 1024" version="1.1" xmlns="http://www.w3.org/2000/svg" p-id="2820" xmlns:xlink="http://www.w3.org/1999/xlink" width="200" height="200"><path d="M1024 604.16h-60.14976v61.35808H1024v-61.37856z" fill="#000000" p-id="2821"></path><path d="M1024 542.57664h-60.14976V604.16H1024v-61.56288zM1024 358.2976h-60.14976V419.84H1024v-61.56288z" fill="#000000" p-id="2822"></path><path d="M1024 296.91904h-60.14976v61.37856H1024v-61.37856zM963.85024 665.51808h-60.35456v61.56288h60.35456v-61.56288z" fill="#000000" p-id="2823"></path><path d="M963.85024 604.16h-60.35456v61.35808h60.35456v-61.37856z" fill="#57A4FF" p-id="2824"></path><path d="M963.85024 542.57664h-60.35456V604.16h60.35456v-61.56288z" fill="#57A4FF" p-id="2825"></path><path d="M963.85024 481.21856h-60.35456v61.35808h60.35456v-61.35808zM963.85024 419.86048h-60.35456v61.35808h60.35456v-61.35808z" fill="#000000" p-id="2826"></path><path d="M963.85024 358.2976h-60.35456V419.84h60.35456v-61.56288z" fill="#57A4FF" p-id="2827"></path><path d="M963.85024 296.91904h-60.35456v61.37856h60.35456v-61.37856z" fill="#57A4FF" p-id="2828"></path><path d="M963.85024 235.35616h-60.35456v61.56288h60.35456v-61.56288zM903.49568 665.51808h-60.17024v61.56288h60.17024v-61.56288z" fill="#000000" p-id="2829"></path><path d="M903.49568 604.16h-60.17024v61.35808h60.17024v-61.37856z" fill="#57A4FF" p-id="2830"></path><path d="M903.49568 542.57664h-60.17024V604.16h60.17024v-61.56288zM903.49568 481.21856h-60.17024v61.35808h60.17024v-61.35808zM903.49568 419.86048h-60.17024v61.35808h60.17024v-61.35808zM903.49568 358.2976h-60.17024V419.84h60.17024v-61.56288z" fill="#57A4FF" p-id="2831"></path><path d="M903.49568 296.91904h-60.17024v61.37856h60.17024v-61.37856z" fill="#57A4FF" p-id="2832"></path><path d="M903.49568 235.35616h-60.17024v61.56288h60.17024v-61.56288zM843.34592 665.51808h-60.35456v61.56288h60.35456v-61.56288z" fill="#000000" p-id="2833"></path><path d="M843.34592 604.16h-60.35456v61.35808h60.35456v-61.37856z" fill="#57A4FF" p-id="2834"></path><path d="M843.34592 542.57664h-60.35456V604.16h60.35456v-61.56288zM843.34592 481.21856h-60.35456v61.35808h60.35456v-61.35808zM843.34592 419.86048h-60.35456v61.35808h60.35456v-61.35808zM843.34592 358.2976h-60.35456V419.84h60.35456v-61.56288z" fill="#57A4FF" p-id="2835"></path><path d="M843.34592 296.91904h-60.35456v61.37856h60.35456v-61.37856z" fill="#57A4FF" p-id="2836"></path><path d="M843.34592 235.35616h-60.35456v61.56288h60.35456v-61.56288zM782.99136 604.16h-60.14976v61.35808h60.14976v-61.37856z" fill="#000000" p-id="2837"></path><path d="M782.99136 542.57664h-60.14976V604.16h60.14976v-61.56288z" fill="#000000" p-id="2838"></path><path d="M782.99136 481.21856h-60.14976v61.35808h60.14976v-61.35808zM782.99136 419.86048h-60.14976v61.35808h60.14976v-61.35808z" fill="#57A4FF" p-id="2839"></path><path d="M782.99136 358.2976h-60.14976V419.84h60.14976v-61.56288z" fill="#000000" p-id="2840"></path><path d="M782.99136 296.91904h-60.14976v61.37856h60.14976v-61.37856zM722.82112 727.08096h-60.14976v61.35808h60.17024v-61.35808zM722.82112 665.51808h-60.14976v61.56288h60.17024v-61.56288z" fill="#000000" p-id="2841"></path><path d="M722.82112 604.16h-60.14976v61.35808h60.17024v-61.37856z" fill="#57A4FF" p-id="2842"></path><path d="M722.82112 542.57664h-60.14976V604.16h60.17024v-61.56288zM722.82112 481.21856h-60.14976v61.35808h60.17024v-61.35808zM722.82112 419.86048h-60.14976v61.35808h60.17024v-61.35808zM722.82112 358.2976h-60.14976V419.84h60.17024v-61.56288z" fill="#57A4FF" p-id="2843"></path><path d="M722.82112 296.91904h-60.14976v61.37856h60.17024v-61.37856z" fill="#000000" p-id="2844"></path><path d="M722.82112 235.35616h-60.14976v61.56288h60.17024v-61.56288zM662.67136 788.43904H602.3168v61.35808h60.35456v-61.35808z" fill="#000000" p-id="2845"></path><path d="M662.67136 727.08096H602.3168v61.35808h60.35456v-61.35808zM662.67136 665.51808H602.3168v61.56288h60.35456v-61.56288zM662.67136 604.16H602.3168v61.35808h60.35456v-61.37856z" fill="#57A4FF" p-id="2846"></path><path d="M662.67136 542.57664H602.3168V604.16h60.35456v-61.56288zM662.67136 481.21856H602.3168v61.35808h60.35456v-61.35808zM662.67136 419.86048H602.3168v61.35808h60.35456v-61.35808zM662.67136 358.2976H602.3168V419.84h60.35456v-61.56288z" fill="#57A4FF" p-id="2847"></path><path d="M662.67136 296.91904H602.3168v61.37856h60.35456v-61.37856z" fill="#57A4FF" p-id="2848"></path><path d="M662.67136 235.35616H602.3168v61.56288h60.35456v-61.56288z" fill="#57A4FF" p-id="2849"></path><path d="M662.67136 174.01856H602.3168v61.35808h60.35456V174.01856zM602.3168 849.79712h-60.12928V911.36h60.14976v-61.56288z" fill="#000000" p-id="2850"></path><path d="M602.3168 788.43904h-60.12928v61.35808h60.14976v-61.35808z" fill="#57A4FF" p-id="2851"></path><path d="M602.3168 727.08096h-60.12928v61.35808h60.14976v-61.35808zM602.3168 665.51808h-60.12928v61.56288h60.14976v-61.56288zM602.3168 604.16h-60.12928v61.35808h60.14976v-61.37856z" fill="#57A4FF" p-id="2852"></path><path d="M602.3168 542.57664h-60.12928V604.16h60.14976v-61.56288zM602.3168 481.21856h-60.12928v61.35808h60.14976v-61.35808zM602.3168 419.86048h-60.12928v61.35808h60.14976v-61.35808zM602.3168 358.2976h-60.12928V419.84h60.14976v-61.56288z" fill="#57A4FF" p-id="2853"></path><path d="M602.3168 296.91904h-60.12928v61.37856h60.14976v-61.37856z" fill="#57A4FF" p-id="2854"></path><path d="M602.3168 235.35616h-60.12928v61.56288h60.14976v-61.56288z" fill="#57A4FF" p-id="2855"></path><path d="M602.3168 174.01856h-60.12928v61.35808h60.14976V174.01856zM542.18752 849.79712h-60.35456V911.36h60.35456v-61.56288z" fill="#000000" p-id="2856"></path><path d="M542.18752 788.43904h-60.35456v61.35808h60.35456v-61.35808z" fill="#57A4FF" p-id="2857"></path><path d="M542.18752 727.08096h-60.35456v61.35808h60.35456v-61.35808zM542.18752 665.51808h-60.35456v61.56288h60.35456v-61.56288zM542.18752 604.16h-60.35456v61.35808h60.35456v-61.37856z" fill="#57A4FF" p-id="2858"></path><path d="M542.18752 542.57664h-60.35456V604.16h60.35456v-61.56288zM542.18752 481.21856h-60.35456v61.35808h60.35456v-61.35808zM542.18752 419.86048h-60.35456v61.35808h60.35456v-61.35808zM542.18752 358.2976h-60.35456V419.84h60.35456v-61.56288z" fill="#57A4FF" p-id="2859"></path><path d="M542.18752 296.91904h-60.35456v61.37856h60.35456v-61.37856z" fill="#57A4FF" p-id="2860"></path><path d="M542.18752 235.35616h-60.35456v61.56288h60.35456v-61.56288z" fill="#57A4FF" p-id="2861"></path><path d="M542.18752 174.01856h-60.35456v61.35808h60.35456V174.01856z" fill="#57A4FF" p-id="2862"></path><path d="M542.18752 112.64h-60.35456v61.35808h60.35456V112.64zM481.81248 849.79712H421.6832V911.36h60.17024v-61.56288z" fill="#000000" p-id="2863"></path><path d="M481.81248 788.43904H421.6832v61.35808h60.17024v-61.35808z" fill="#57A4FF" p-id="2864"></path><path d="M481.81248 727.08096H421.6832v61.35808h60.17024v-61.35808zM481.81248 665.51808H421.6832v61.56288h60.17024v-61.56288zM481.81248 604.16H421.6832v61.35808h60.17024v-61.37856z" fill="#57A4FF" p-id="2865"></path><path d="M481.81248 542.57664H421.6832V604.16h60.17024v-61.56288zM481.81248 481.21856H421.6832v61.35808h60.17024v-61.35808zM481.81248 419.86048H421.6832v61.35808h60.17024v-61.35808zM481.81248 358.2976H421.6832V419.84h60.17024v-61.56288z" fill="#57A4FF" p-id="2866"></path><path d="M481.81248 296.91904H421.6832v61.37856h60.17024v-61.37856z" fill="#57A4FF" p-id="2867"></path><path d="M481.81248 235.35616H421.6832v61.56288h60.17024v-61.56288z" fill="#57A4FF" p-id="2868"></path><path d="M481.81248 174.01856H421.6832v61.35808h60.17024V174.01856z" fill="#57A4FF" p-id="2869"></path><path d="M481.81248 112.64H421.6832v61.35808h60.17024V112.64zM421.6832 849.79712h-60.37504V911.36h60.35456v-61.56288z" fill="#000000" p-id="2870"></path><path d="M421.6832 788.43904h-60.37504v61.35808h60.35456v-61.35808z" fill="#57A4FF" p-id="2871"></path><path d="M421.6832 727.08096h-60.37504v61.35808h60.35456v-61.35808zM421.6832 665.51808h-60.37504v61.56288h60.35456v-61.56288zM421.6832 604.16h-60.37504v61.35808h60.35456v-61.37856z" fill="#57A4FF" p-id="2872"></path><path d="M421.6832 542.57664h-60.37504V604.16h60.35456v-61.56288zM421.6832 481.21856h-60.37504v61.35808h60.35456v-61.35808zM421.6832 419.86048h-60.37504v61.35808h60.35456v-61.35808zM421.6832 358.2976h-60.37504V419.84h60.35456v-61.56288z" fill="#57A4FF" p-id="2873"></path><path d="M421.6832 296.91904h-60.37504v61.37856h60.35456v-61.37856z" fill="#57A4FF" p-id="2874"></path><path d="M421.6832 235.35616h-60.37504v61.56288h60.35456v-61.56288z" fill="#57A4FF" p-id="2875"></path><path d="M421.6832 174.01856h-60.37504v61.35808h60.35456V174.01856z" fill="#57A4FF" p-id="2876"></path><path d="M421.6832 112.64h-60.37504v61.35808h60.35456V112.64zM361.30816 849.79712h-60.14976V911.36h60.14976v-61.56288z" fill="#000000" p-id="2877"></path><path d="M361.30816 788.43904h-60.14976v61.35808h60.14976v-61.35808z" fill="#57A4FF" p-id="2878"></path><path d="M361.30816 727.08096h-60.14976v61.35808h60.14976v-61.35808zM361.30816 665.51808h-60.14976v61.56288h60.14976v-61.56288zM361.30816 604.16h-60.14976v61.35808h60.14976v-61.37856z" fill="#57A4FF" p-id="2879"></path><path d="M361.30816 542.57664h-60.14976V604.16h60.14976v-61.56288zM361.30816 481.21856h-60.14976v61.35808h60.14976v-61.35808zM361.30816 419.86048h-60.14976v61.35808h60.14976v-61.35808zM361.30816 358.2976h-60.14976V419.84h60.14976v-61.56288z" fill="#57A4FF" p-id="2880"></path><path d="M361.30816 296.91904h-60.14976v61.37856h60.14976v-61.37856z" fill="#57A4FF" p-id="2881"></path><path d="M361.30816 235.35616h-60.14976v61.56288h60.14976v-61.56288z" fill="#57A4FF" p-id="2882"></path><path d="M361.30816 174.01856h-60.14976v61.35808h60.14976V174.01856z" fill="#57A4FF" p-id="2883"></path><path d="M361.30816 112.64h-60.14976v61.35808h60.14976V112.64zM301.1584 849.79712h-60.14976V911.36h60.14976v-61.56288z" fill="#000000" p-id="2884"></path><path d="M301.1584 788.43904h-60.14976v61.35808h60.14976v-61.35808z" fill="#57A4FF" p-id="2885"></path><path d="M301.1584 727.08096h-60.14976v61.35808h60.14976v-61.35808zM301.1584 665.51808h-60.14976v61.56288h60.14976v-61.56288zM301.1584 604.16h-60.14976v61.35808h60.14976v-61.37856z" fill="#57A4FF" p-id="2886"></path><path d="M301.1584 542.57664h-60.14976V604.16h60.14976v-61.56288z" fill="#57A4FF" p-id="2887"></path><path d="M301.1584 481.21856h-60.14976v61.35808h60.14976v-61.35808zM301.1584 419.86048h-60.14976v61.35808h60.14976v-61.35808z" fill="#000000" p-id="2888"></path><path d="M301.1584 358.2976h-60.14976V419.84h60.14976v-61.56288z" fill="#57A4FF" p-id="2889"></path><path d="M301.1584 296.91904h-60.14976v61.37856h60.14976v-61.37856z" fill="#57A4FF" p-id="2890"></path><path d="M301.1584 235.35616h-60.14976v61.56288h60.14976v-61.56288z" fill="#57A4FF" p-id="2891"></path><path d="M301.1584 174.01856h-60.14976v61.35808h60.14976V174.01856z" fill="#57A4FF" p-id="2892"></path><path d="M301.1584 112.64h-60.14976v61.35808h60.14976V112.64zM241.00864 788.43904H180.65408v61.35808h60.35456v-61.35808z" fill="#000000" p-id="2893"></path><path d="M241.00864 727.08096H180.65408v61.35808h60.35456v-61.35808zM241.00864 665.51808H180.65408v61.56288h60.35456v-61.56288zM241.00864 604.16H180.65408v61.35808h60.35456v-61.37856z" fill="#57A4FF" p-id="2894"></path><path d="M241.00864 542.57664H180.65408V604.16h60.35456v-61.56288zM241.00864 481.21856H180.65408v61.35808h60.35456v-61.35808zM241.00864 419.86048H180.65408v61.35808h60.35456v-61.35808zM241.00864 358.2976H180.65408V419.84h60.35456v-61.56288z" fill="#57A4FF" p-id="2895"></path><path d="M241.00864 296.91904H180.65408v61.37856h60.35456v-61.37856z" fill="#57A4FF" p-id="2896"></path><path d="M241.00864 235.35616H180.65408v61.56288h60.35456v-61.56288z" fill="#57A4FF" p-id="2897"></path><path d="M241.00864 174.01856H180.65408v61.35808h60.35456V174.01856zM180.65408 788.43904H120.50432v61.35808h60.14976v-61.35808z" fill="#000000" p-id="2898"></path><path d="M180.65408 727.08096H120.50432v61.35808h60.14976v-61.35808zM180.65408 665.51808H120.50432v61.56288h60.14976v-61.56288zM180.65408 604.16H120.50432v61.35808h60.14976v-61.37856z" fill="#57A4FF" p-id="2899"></path><path d="M180.65408 542.57664H120.50432V604.16h60.14976v-61.56288zM180.65408 481.21856H120.50432v61.35808h60.14976v-61.35808zM180.65408 419.86048H120.50432v61.35808h60.14976v-61.35808zM180.65408 358.2976H120.50432V419.84h60.14976v-61.56288z" fill="#57A4FF" p-id="2900"></path><path d="M180.65408 296.91904H120.50432v61.37856h60.14976v-61.37856z" fill="#57A4FF" p-id="2901"></path><path d="M180.65408 235.35616H120.50432v61.56288h60.14976v-61.56288z" fill="#57A4FF" p-id="2902"></path><path d="M180.65408 174.01856H120.50432v61.35808h60.14976V174.01856zM120.50432 727.08096H60.14976v61.35808h60.35456v-61.35808zM120.50432 665.51808H60.14976v61.56288h60.35456v-61.56288z" fill="#000000" p-id="2903"></path><path d="M120.50432 604.16H60.14976v61.35808h60.35456v-61.37856z" fill="#57A4FF" p-id="2904"></path><path d="M120.50432 542.57664H60.14976V604.16h60.35456v-61.56288zM120.50432 481.21856H60.14976v61.35808h60.35456v-61.35808zM120.50432 419.86048H60.14976v61.35808h60.35456v-61.35808zM120.50432 358.2976H60.14976V419.84h60.35456v-61.56288z" fill="#57A4FF" p-id="2905"></path><path d="M120.50432 296.91904H60.14976v61.37856h60.35456v-61.37856z" fill="#57A4FF" p-id="2906"></path><path d="M120.50432 235.35616H60.14976v61.56288h60.35456v-61.56288zM60.14976 604.16H0v61.35808h60.14976v-61.37856z" fill="#000000" p-id="2907"></path><path d="M60.14976 542.57664H0V604.16h60.14976v-61.56288zM60.14976 481.21856H0v61.35808h60.14976v-61.35808zM60.14976 419.86048H0v61.35808h60.14976v-61.35808zM60.14976 358.2976H0V419.84h60.14976v-61.56288z" fill="#000000" p-id="2908"></path><path d="M60.14976 296.91904H0v61.37856h60.14976v-61.37856z" fill="#000000" p-id="2909"></path></svg>

<svg class="icon" viewBox="0 0 1024 1024" xmlns="http://www.w3.org/2000/svg" width="200" height="200"><path d="M1024 604.16h-60.15v61.358H1024V604.14z"/><path d="M1024 542.577h-60.15v61.583H1024v-61.563zm0-184.28h-60.15v61.543H1024v-61.563z"/><path d="M1024 296.919h-60.15v61.379H1024v-61.379zm-60.15 368.6h-60.354v61.562h60.354v-61.563z"/><path d="M963.85 604.16h-60.354v61.358h60.354V604.14z" fill="#57A4FF"/><path d="M963.85 542.577h-60.354v61.583h60.354v-61.563z" fill="#57A4FF"/><path d="M963.85 481.219h-60.354v61.358h60.354v-61.358zm0-61.359h-60.354v61.359h60.354V419.86z"/><path d="M963.85 358.298h-60.354v61.542h60.354v-61.563z" fill="#57A4FF"/><path d="M963.85 296.919h-60.354v61.379h60.354v-61.379z" fill="#57A4FF"/><path d="M963.85 235.356h-60.354v61.563h60.354v-61.563zm-60.354 430.162h-60.17v61.563h60.17v-61.563z"/><path d="M903.496 604.16h-60.17v61.358h60.17V604.14z" fill="#57A4FF"/><path d="M903.496 542.577h-60.17v61.583h60.17v-61.563zm0-61.358h-60.17v61.358h60.17v-61.358zm0-61.359h-60.17v61.359h60.17V419.86zm0-61.562h-60.17v61.542h60.17v-61.563z" fill="#57A4FF"/><path d="M903.496 296.919h-60.17v61.379h60.17v-61.379z" fill="#57A4FF"/><path d="M903.496 235.356h-60.17v61.563h60.17v-61.563zm-60.15 430.162H782.99v61.563h60.355v-61.563z"/><path d="M843.346 604.16H782.99v61.358h60.355V604.14z" fill="#57A4FF"/><path d="M843.346 542.577H782.99v61.583h60.355v-61.563zm0-61.358H782.99v61.358h60.355v-61.358zm0-61.359H782.99v61.359h60.355V419.86zm0-61.562H782.99v61.542h60.355v-61.563z" fill="#57A4FF"/><path d="M843.346 296.919H782.99v61.379h60.355v-61.379z" fill="#57A4FF"/><path d="M843.346 235.356H782.99v61.563h60.355v-61.563zM782.99 604.16h-60.15v61.358h60.15V604.14z"/><path d="M782.991 542.577h-60.15v61.583h60.15v-61.563z"/><path d="M782.991 481.219h-60.15v61.358h60.15v-61.358zm0-61.359h-60.15v61.359h60.15V419.86z" fill="#57A4FF"/><path d="M782.991 358.298h-60.15v61.542h60.15v-61.563z"/><path d="M782.991 296.919h-60.15v61.379h60.15v-61.379zm-60.17 430.162h-60.15v61.358h60.17v-61.358zm0-61.563h-60.15v61.563h60.17v-61.563z"/><path d="M722.821 604.16h-60.15v61.358h60.17V604.14z" fill="#57A4FF"/><path d="M722.821 542.577h-60.15v61.583h60.17v-61.563zm0-61.358h-60.15v61.358h60.17v-61.358zm0-61.359h-60.15v61.359h60.17V419.86zm0-61.562h-60.15v61.542h60.17v-61.563z" fill="#57A4FF"/><path d="M722.821 296.919h-60.15v61.379h60.17v-61.379zM722.821 235.356h-60.15v61.563h60.17v-61.563zm-60.15 553.083h-60.354v61.358h60.354V788.44z"/><path d="M662.671 727.081h-60.354v61.358h60.354v-61.358zm0-61.563h-60.354v61.563h60.354v-61.563zm0-61.358h-60.354v61.358h60.354V604.14z" fill="#57A4FF"/><path d="M662.671 542.577h-60.354v61.583h60.354v-61.563zm0-61.358h-60.354v61.358h60.354v-61.358zm0-61.359h-60.354v61.359h60.354V419.86zm0-61.562h-60.354v61.542h60.354v-61.563z" fill="#57A4FF"/><path d="M662.671 296.919h-60.354v61.379h60.354v-61.379zM662.671 235.356h-60.354v61.563h60.354v-61.563z" fill="#57A4FF"/><path d="M662.671 174.019h-60.354v61.358h60.354v-61.358zm-60.354 675.778h-60.13v61.563h60.15v-61.563z"/><path d="M602.317 788.439h-60.13v61.358h60.15V788.44zM602.317 727.081h-60.13v61.358h60.15v-61.358zm0-61.563h-60.13v61.563h60.15v-61.563zm0-61.358h-60.13v61.358h60.15V604.14z" fill="#57A4FF"/><path d="M602.317 542.577h-60.13v61.583h60.15v-61.563zm0-61.358h-60.13v61.358h60.15v-61.358zm0-61.359h-60.13v61.359h60.15V419.86zm0-61.562h-60.13v61.542h60.15v-61.563z" fill="#57A4FF"/><path d="M602.317 296.919h-60.13v61.379h60.15v-61.379zM602.317 235.356h-60.13v61.563h60.15v-61.563z" fill="#57A4FF"/><path d="M602.317 174.019h-60.13v61.358h60.15v-61.358zm-60.13 675.778h-60.354v61.563h60.355v-61.563z"/><path d="M542.188 788.439h-60.355v61.358h60.355V788.44zM542.188 727.081h-60.355v61.358h60.355v-61.358zm0-61.563h-60.355v61.563h60.355v-61.563zm0-61.358h-60.355v61.358h60.355V604.14z" fill="#57A4FF"/><path d="M542.188 542.577h-60.355v61.583h60.355v-61.563zm0-61.358h-60.355v61.358h60.355v-61.358zm0-61.359h-60.355v61.359h60.355V419.86zm0-61.562h-60.355v61.542h60.355v-61.563z" fill="#57A4FF"/><path d="M542.188 296.919h-60.355v61.379h60.355v-61.379zM542.188 235.356h-60.355v61.563h60.355v-61.563z" fill="#57A4FF"/><path d="M542.188 174.019h-60.355v61.358h60.355v-61.358z" fill="#57A4FF"/><path d="M542.188 112.64h-60.355v61.358h60.355V112.64zm-60.376 737.157h-60.129v61.563h60.17v-61.563z"/><path d="M481.812 788.439h-60.129v61.358h60.17V788.44zM481.812 727.081h-60.129v61.358h60.17v-61.358zm0-61.563h-60.129v61.563h60.17v-61.563zm0-61.358h-60.129v61.358h60.17V604.14z" fill="#57A4FF"/><path d="M481.812 542.577h-60.129v61.583h60.17v-61.563zm0-61.358h-60.129v61.358h60.17v-61.358zm0-61.359h-60.129v61.359h60.17V419.86zm0-61.562h-60.129v61.542h60.17v-61.563z" fill="#57A4FF"/><path d="M481.812 296.919h-60.129v61.379h60.17v-61.379zM481.812 235.356h-60.129v61.563h60.17v-61.563z" fill="#57A4FF"/><path d="M481.812 174.019h-60.129v61.358h60.17v-61.358z" fill="#57A4FF"/><path d="M481.812 112.64h-60.129v61.358h60.17V112.64zm-60.129 737.157h-60.375v61.563h60.355v-61.563z"/><path d="M421.683 788.439h-60.375v61.358h60.355V788.44zM421.683 727.081h-60.375v61.358h60.355v-61.358zm0-61.563h-60.375v61.563h60.355v-61.563zm0-61.358h-60.375v61.358h60.355V604.14z" fill="#57A4FF"/><path d="M421.683 542.577h-60.375v61.583h60.355v-61.563zm0-61.358h-60.375v61.358h60.355v-61.358zm0-61.359h-60.375v61.359h60.355V419.86zm0-61.562h-60.375v61.542h60.355v-61.563z" fill="#57A4FF"/><path d="M421.683 296.919h-60.375v61.379h60.355v-61.379zM421.683 235.356h-60.375v61.563h60.355v-61.563z" fill="#57A4FF"/><path d="M421.683 174.019h-60.375v61.358h60.355v-61.358z" fill="#57A4FF"/><path d="M421.683 112.64h-60.375v61.358h60.355V112.64zm-60.375 737.157h-60.15v61.563h60.15v-61.563z"/><path d="M361.308 788.439h-60.15v61.358h60.15V788.44zM361.308 727.081h-60.15v61.358h60.15v-61.358zm0-61.563h-60.15v61.563h60.15v-61.563zm0-61.358h-60.15v61.358h60.15V604.14z" fill="#57A4FF"/><path d="M361.308 542.577h-60.15v61.583h60.15v-61.563zm0-61.358h-60.15v61.358h60.15v-61.358zm0-61.359h-60.15v61.359h60.15V419.86zm0-61.562h-60.15v61.542h60.15v-61.563z" fill="#57A4FF"/><path d="M361.308 296.919h-60.15v61.379h60.15v-61.379zM361.308 235.356h-60.15v61.563h60.15v-61.563z" fill="#57A4FF"/><path d="M361.308 174.019h-60.15v61.358h60.15v-61.358z" fill="#57A4FF"/><path d="M361.308 112.64h-60.15v61.358h60.15V112.64zm-60.15 737.157h-60.15v61.563h60.15v-61.563z"/><path d="M301.158 788.439h-60.15v61.358h60.15V788.44zM301.158 727.081h-60.15v61.358h60.15v-61.358zm0-61.563h-60.15v61.563h60.15v-61.563zm0-61.358h-60.15v61.358h60.15V604.14z" fill="#57A4FF"/><path d="M301.158 542.577h-60.15v61.583h60.15v-61.563z" fill="#57A4FF"/><path d="M301.158 481.219h-60.15v61.358h60.15v-61.358zm0-61.359h-60.15v61.359h60.15V419.86z"/><path d="M301.158 358.298h-60.15v61.542h60.15v-61.563z" fill="#57A4FF"/><path d="M301.158 296.919h-60.15v61.379h60.15v-61.379zM301.158 235.356h-60.15v61.563h60.15v-61.563z" fill="#57A4FF"/><path d="M301.158 174.019h-60.15v61.358h60.15v-61.358z" fill="#57A4FF"/><path d="M301.158 112.64h-60.15v61.358h60.15V112.64zm-60.15 675.799h-60.354v61.358h60.355V788.44z"/><path d="M241.009 727.081h-60.355v61.358h60.355v-61.358zm0-61.563h-60.355v61.563h60.355v-61.563zm0-61.358h-60.355v61.358h60.355V604.14z" fill="#57A4FF"/><path d="M241.009 542.577h-60.355v61.583h60.355v-61.563zm0-61.358h-60.355v61.358h60.355v-61.358zm0-61.359h-60.355v61.359h60.355V419.86zm0-61.562h-60.355v61.542h60.355v-61.563z" fill="#57A4FF"/><path d="M241.009 296.919h-60.355v61.379h60.355v-61.379zM241.009 235.356h-60.355v61.563h60.355v-61.563z" fill="#57A4FF"/><path d="M241.009 174.019h-60.355v61.358h60.355v-61.358zm-60.355 614.42h-60.15v61.358h60.15V788.44z"/><path d="M180.654 727.081h-60.15v61.358h60.15v-61.358zm0-61.563h-60.15v61.563h60.15v-61.563zm0-61.358h-60.15v61.358h60.15V604.14z" fill="#57A4FF"/><path d="M180.654 542.577h-60.15v61.583h60.15v-61.563zm0-61.358h-60.15v61.358h60.15v-61.358zm0-61.359h-60.15v61.359h60.15V419.86zm0-61.562h-60.15v61.542h60.15v-61.563z" fill="#57A4FF"/><path d="M180.654 296.919h-60.15v61.379h60.15v-61.379zM180.654 235.356h-60.15v61.563h60.15v-61.563z" fill="#57A4FF"/><path d="M180.654 174.019h-60.15v61.358h60.15v-61.358zm-60.15 553.062H60.15v61.358h60.354v-61.358zm0-61.563H60.15v61.563h60.354v-61.563z"/><path d="M120.504 604.16H60.15v61.358h60.354V604.14z" fill="#57A4FF"/><path d="M120.504 542.577H60.15v61.583h60.354v-61.563zm0-61.358H60.15v61.358h60.354v-61.358zm0-61.359H60.15v61.359h60.354V419.86zm0-61.562H60.15v61.542h60.354v-61.563z" fill="#57A4FF"/><path d="M120.504 296.919H60.15v61.379h60.354v-61.379z" fill="#57A4FF"/><path d="M120.504 235.356H60.15v61.563h60.354v-61.563zM60.15 604.16H0v61.358h60.15V604.14z"/><path d="M60.15 542.577H0v61.583h60.15v-61.563zm0-61.358H0v61.358h60.15v-61.358zm0-61.359H0v61.359h60.15V419.86zm0-61.562H0v61.542h60.15v-61.563z"/><path d="M60.15 296.919H0v61.379h60.15v-61.379z"/></svg>
